svgs/solid/binoculars.svg

<svg xmlns="http://www.w3.org/2000/svg" viewBox="0 0 512 512"><!--! Font Awesome Free 6.6.0 by @fontawesome - https://fontawesome.com License - https://fontawesome.com/license/free (Icons: CC BY 4.0, Fonts: SIL OFL 1.1, Code: MIT License) Copyright 2024 Fonticons, Inc. --><path d="M128 32l32 0c17.7 0 32 14.3 32 32l0 32L96 96l0-32c0-17.7 14.3-32 32-32zm64 96l0 320c0 17.7-14.3 32-32 32L32 480c-17.7 0-32-14.3-32-32l0-59.1c0-34.6 9.4-68.6 27.2-98.3C40.9 267.8 49.7 242.4 53 216L60.5 156c2-16 15.6-28 31.8-28l99.8 0zm227.8 0c16.1 0 29.8 12 31.8 28L459 216c3.3 26.4 12.1 51.8 25.8 74.6c17.8 29.7 27.2 63.7 27.2 98.3l0 59.1c0 17.7-14.3 32-32 32l-128 0c-17.7 0-32-14.3-32-32l0-320 99.8 0zM320 64c0-17.7 14.3-32 32-32l32 0c17.7 0 32 14.3 32 32l0 32-96 0 0-32zm-32 64l0 160-64 0 0-160 64 0z"/></svg>

<svg xmlns="http://www.w3.org/2000/svg" viewBox="0 0 512 512"><!--! Font Awesome Free 6.5.2 by @fontawesome - https://fontawesome.com License - https://fontawesome.com/license/free (Icons: CC BY 4.0, Fonts: SIL OFL 1.1, Code: MIT License) Copyright 2024 Fonticons, Inc. --><path d="M128 32h32c17.7 0 32 14.3 32 32V96H96V64c0-17.7 14.3-32 32-32zm64 96V448c0 17.7-14.3 32-32 32H32c-17.7 0-32-14.3-32-32V388.9c0-34.6 9.4-68.6 27.2-98.3C40.9 267.8 49.7 242.4 53 216L60.5 156c2-16 15.6-28 31.8-28H192zm227.8 0c16.1 0 29.8 12 31.8 28L459 216c3.3 26.4 12.1 51.8 25.8 74.6c17.8 29.7 27.2 63.7 27.2 98.3V448c0 17.7-14.3 32-32 32H352c-17.7 0-32-14.3-32-32V128h99.8zM320 64c0-17.7 14.3-32 32-32h32c17.7 0 32 14.3 32 32V96H320V64zm-32 64V288H224V128h64z"/></svg>
